public/img/events/fishing.svg

<svg width="200" height="200" viewBox="0 0 200 200" fill="none" xmlns="http://www.w3.org/2000/svg">
<path d="M27.7636 77.6595C35.4002 78.0197 43.0665 77.8096 50.6734 76.9092C57.894 76.0388 64.8471 74.0579 71.7112 71.7168C78.6346 69.3758 85.4987 66.8846 92.6004 65.2039C96.1661 64.3635 99.821 63.7332 103.476 63.5831C105.288 63.5231 107.19 63.4931 109.003 63.7932C110.31 64.0333 111.885 64.3635 112.776 65.414C114.648 67.635 113.519 70.3362 111.766 72.107C109.954 73.9378 107.695 75.2584 105.853 77.0592C105.556 77.3594 105.586 77.8396 105.853 78.1097C107.309 79.7004 109.181 80.6909 111.261 81.1711C113.49 81.6813 115.748 81.5913 118.006 81.7413C123.593 82.1015 129.149 82.5517 134.706 83.0619C140.381 83.5722 146.027 84.0824 151.702 84.4126C157.348 84.7727 163.024 85.1329 168.669 85.5831C171.462 85.7932 174.285 86.1834 177.078 86.2434C179.753 86.3034 182.427 86.0033 185.042 85.433C187.568 84.8628 189.766 83.9924 191.906 82.4617C192.916 81.7413 193.897 80.931 194.818 80.1206C195.561 79.4903 196.601 78.1097 197.581 79.0701C198.413 79.9105 198.443 81.2011 198.503 82.3116C198.592 83.5722 198.592 84.8327 198.532 86.0933C198.413 88.5844 198.027 91.0456 197.433 93.4767C196.244 98.3689 194.313 103.021 192.203 107.553C191.163 109.804 190.064 112.025 188.994 114.276C188.013 116.347 187.092 118.388 185.101 119.679C183.556 120.669 181.565 121.269 179.931 120.159C178.653 119.258 177.94 117.698 177.316 116.287C176.573 114.606 175.89 112.925 174.761 111.485C173.542 109.954 171.938 108.784 170.185 107.973C168.372 107.133 166.381 106.503 164.42 106.262C161.686 105.902 158.953 106.142 156.219 106.413C153.931 106.623 151.435 106.683 149.503 108.153C148.761 108.724 148.255 109.474 148.374 110.464C148.463 111.365 149.028 112.085 149.385 112.895C149.533 113.256 149.741 113.676 149.444 113.976C149.087 114.366 148.493 114.186 148.077 114.066C146.918 113.766 145.849 113.226 144.838 112.595C143.917 112.025 143.055 111.395 142.105 110.824C141.094 110.224 139.995 109.804 138.895 109.384C129.298 105.662 118.838 105.002 108.646 104.882C107.368 104.852 106.091 104.852 104.813 104.852C103.565 104.852 102.287 104.732 101.069 105.062C98.365 105.782 95.661 106.413 92.9867 107.073C87.6678 108.393 82.4975 110.104 77.0895 110.945C66.2734 112.595 55.2197 111.755 44.4631 109.924C41.8482 109.474 39.263 108.964 36.6482 108.423C35.8756 108.273 35.2516 109.414 36.0836 109.804C37.1533 110.284 38.2528 110.855 39.3819 111.185C40.0356 111.365 40.9865 111.095 40.6299 110.224C40.4516 109.744 39.8276 109.534 39.3819 109.324C38.4905 108.934 37.5693 108.634 36.6185 108.423C35.8459 108.243 35.2516 109.414 36.0539 109.804C41.8779 112.535 47.2562 116.257 51.8322 120.849C54.1797 123.22 56.2003 125.831 58.2803 128.442C60.1523 130.784 62.262 132.975 64.9066 134.475C68.1454 136.306 71.8003 137.236 75.4255 137.987C76.198 138.137 76.8221 136.966 75.9901 136.606C67.67 132.914 63.3317 122.17 66.9866 113.676C67.3729 112.805 66.0952 112.025 65.7089 112.925C61.7569 122.08 66.1249 133.845 75.2472 137.897C75.4255 137.447 75.6335 136.996 75.8118 136.516C72.5729 135.856 69.3043 135.045 66.3329 133.515C63.5991 132.104 61.43 129.943 59.5283 127.572C57.478 125.021 55.5168 122.44 53.2288 120.099C51.03 117.848 48.5934 115.777 46.0379 113.916C43.1556 111.815 40.0653 109.984 36.8265 108.483C36.6482 108.934 36.4402 109.384 36.2619 109.864C37.0345 110.044 37.807 110.254 38.5202 110.554C38.7579 110.644 38.9659 110.764 39.2036 110.855C39.679 111.095 39.1739 110.975 39.2333 110.494C39.2928 110.314 39.3819 110.134 39.4413 109.954C39.8871 109.564 40.1545 109.864 39.7682 109.714C39.5899 109.624 39.3522 109.564 39.1739 109.504C38.3716 109.204 37.599 108.844 36.8265 108.483C36.6482 108.934 36.4402 109.384 36.2619 109.864C46.9888 112.115 57.9831 113.706 68.9477 113.226C74.4449 112.985 79.9421 112.205 85.2609 110.764C87.9649 110.044 90.6392 109.204 93.373 108.513C96.077 107.853 98.781 107.133 101.455 106.503C102.763 106.202 104.219 106.352 105.556 106.352C106.893 106.352 108.23 106.352 109.538 106.382C112.152 106.413 114.767 106.503 117.382 106.653C122.671 106.983 127.961 107.673 133.071 109.054C135.597 109.744 138.212 110.524 140.53 111.695C142.491 112.685 144.155 114.186 146.175 115.026C147.661 115.657 150.335 116.347 150.959 114.156C151.197 113.286 150.751 112.385 150.335 111.635C150.127 111.245 149.89 110.855 149.801 110.434C149.682 109.744 150.217 109.354 150.751 109.024C151.762 108.423 153.039 108.153 154.198 108.063C155.595 107.943 156.992 107.793 158.388 107.673C161.003 107.463 163.618 107.463 166.173 108.123C168.164 108.634 170.125 109.414 171.76 110.674C173.394 111.935 174.434 113.586 175.266 115.447C176.514 118.268 177.881 121.869 181.387 122.23C183.408 122.44 185.428 121.389 186.914 120.099C188.637 118.598 189.499 116.527 190.48 114.486C194.788 105.512 199.483 96.2679 199.959 86.0933C200.018 84.7727 200.018 83.4821 199.929 82.1615C199.84 81.021 199.78 79.9105 199.216 78.8901C198.8 78.1397 198.146 77.4494 197.284 77.2693C196.215 77.0292 195.353 77.6295 194.61 78.2898C192.708 79.9705 190.747 81.6513 188.459 82.7918C186.022 83.9924 182.992 84.4126 180.317 84.6527C177.405 84.8928 174.553 84.5926 171.67 84.3525C168.818 84.1124 165.936 83.9023 163.083 83.6922C157.289 83.272 151.524 83.0019 145.73 82.5817C140.025 82.1916 134.349 81.5313 128.674 81.051C125.821 80.8109 122.998 80.6008 120.146 80.3907C118.749 80.3007 117.352 80.1506 115.926 80.1506C114.827 80.1506 113.698 80.0906 112.598 79.9405C110.399 79.6104 108.379 78.74 106.863 77.0892C106.863 77.4494 106.863 77.8096 106.863 78.1397C109.805 75.2284 115.748 72.6472 115.183 67.635C115.035 66.4044 114.53 65.0838 113.668 64.2134C112.658 63.223 111.261 62.7428 109.894 62.4426C106.269 61.6923 102.347 62.0224 98.6918 62.5026C83.5672 64.6036 69.8392 72.017 54.8631 74.7782C45.9785 76.3989 36.7373 76.579 27.7339 76.1588C26.783 76.0988 26.8127 77.5995 27.7636 77.6595Z" fill="black"/>
<path d="M29.2495 76.2789C26.7535 76.1588 24.2872 76.2188 21.8803 76.8791C19.2952 77.5695 16.7694 78.68 14.422 79.9405C10.054 82.2516 6.04254 85.343 2.74424 89.0647C1.94195 89.9651 1.05052 90.9255 0.426515 91.976C0.0699419 92.5762 -0.108344 93.2666 0.0699428 93.9569C0.218515 94.5571 0.604805 95.0974 0.931663 95.6076C2.17967 97.5285 3.78424 99.2092 5.56711 100.65C9.45969 103.741 14.0951 105.632 18.8494 106.863C24.198 108.243 29.7249 108.964 35.1626 109.834C35.8758 109.954 36.5889 110.074 37.2724 110.194C37.6587 110.254 38.0747 110.104 38.1935 109.684C38.2827 109.324 38.0747 108.814 37.6884 108.754C32.3992 107.883 27.0506 107.163 21.8209 106.022C17.0963 105.002 12.4311 103.531 8.38997 100.86C6.5774 99.6594 4.91339 98.2488 3.51681 96.568C2.83338 95.7577 2.14995 94.8573 1.67452 93.8968C1.40709 93.3866 1.52595 92.9964 1.8231 92.5462C2.14995 92.066 2.50653 91.6458 2.8631 91.1956C5.86425 87.564 9.51912 84.4726 13.5603 82.1015C15.7889 80.8109 18.1066 79.7004 20.5135 78.86C21.6723 78.4398 22.8312 78.1097 24.0495 77.9296C25.1489 77.7495 26.278 77.7195 27.3775 77.7195C28.0015 77.7195 28.6255 77.7495 29.2495 77.7796C30.2003 77.8396 30.2003 76.3389 29.2495 76.2789Z" fill="black"/>
<path d="M32.9638 77.9596C34.4495 79.5203 35.6084 81.3511 36.3512 83.3921C37.0347 85.343 37.3615 87.4139 37.3912 89.5148C37.4209 91.6458 37.1535 93.7468 36.7078 95.8477C36.4701 96.8982 36.2026 97.9787 35.9055 98.9991C35.6084 99.9896 35.3112 101.04 34.8655 101.97C33.7661 104.252 31.5672 105.752 29.5169 107.103C28.7146 107.613 29.4575 108.934 30.2598 108.393C32.2804 107.073 34.3306 105.632 35.6678 103.561C36.2918 102.571 36.6484 101.46 37.0049 100.38C37.3615 99.2993 37.6587 98.1888 37.9261 97.1083C38.9661 92.7263 39.3227 87.9842 37.9558 83.6322C37.1535 81.111 35.8164 78.83 34.0038 76.9392C33.3204 76.1888 32.2803 77.2693 32.9638 77.9596Z" fill="black"/>
<path fill-rule="evenodd" clip-rule="evenodd" d="M17.363 89.4248C16.2635 89.4248 15.3722 90.3252 15.3722 91.4358C15.3722 92.5464 16.2635 93.4467 17.363 93.4467C18.4626 93.4467 19.3539 92.5464 19.3539 91.4358C19.3539 90.3252 18.4626 89.4248 17.363 89.4248ZM14.1836 91.4358C14.1836 89.6621 15.6071 88.2243 17.363 88.2243C19.119 88.2243 20.5425 89.6621 20.5425 91.4358C20.5425 93.2094 19.119 94.6472 17.363 94.6472C15.6071 94.6472 14.1836 93.2094 14.1836 91.4358Z" fill="black"/>
</svg>

<svg xmlns="http://www.w3.org/2000/svg" width="200" height="200" fill="none"><path fill="#000" d="M27.764 77.66c7.636.36 15.302.15 22.91-.75 7.22-.871 14.173-2.852 21.037-5.193 6.924-2.341 13.788-4.832 20.89-6.513 3.565-.84 7.22-1.47 10.875-1.62 1.812-.06 3.714-.09 5.527.21 1.307.24 2.882.57 3.773 1.62 1.872 2.221.743 4.922-1.01 6.693-1.812 1.83-4.071 3.151-5.913 4.952a.76.76 0 0 0 0 1.05c1.456 1.591 3.328 2.582 5.408 3.062 2.229.51 4.487.42 6.745.57 5.587.36 11.143.81 16.7 1.32 5.675.511 11.321 1.021 16.996 1.352 5.646.36 11.322.72 16.967 1.17 2.793.21 5.616.6 8.409.66 2.675.06 5.349-.24 7.964-.81 2.526-.57 4.724-1.44 6.864-2.971 1.01-.72 1.991-1.531 2.912-2.341.743-.63 1.783-2.011 2.763-1.05.832.84.862 2.13.922 3.24.089 1.261.089 2.522.029 3.782-.119 2.491-.505 4.953-1.099 7.384-1.189 4.892-3.12 9.544-5.23 14.076-1.04 2.251-2.139 4.472-3.209 6.723-.981 2.071-1.902 4.112-3.893 5.403-1.545.99-3.536 1.59-5.17.48-1.278-.901-1.991-2.461-2.615-3.872-.743-1.681-1.426-3.362-2.555-4.802-1.219-1.531-2.823-2.701-4.576-3.512-1.813-.84-3.804-1.47-5.765-1.711-2.734-.36-5.467-.12-8.201.151-2.288.21-4.784.27-6.716 1.74-.742.571-1.248 1.321-1.129 2.311.089.901.654 1.621 1.011 2.431.148.361.356.781.059 1.081-.357.39-.951.21-1.367.09-1.159-.3-2.228-.84-3.239-1.471-.921-.57-1.783-1.2-2.733-1.771-1.011-.6-2.11-1.02-3.21-1.44-9.597-3.722-20.057-4.382-30.249-4.502-1.278-.03-2.555-.03-3.833-.03-1.248 0-2.526-.12-3.744.21-2.704.72-5.408 1.351-8.082 2.011-5.32 1.32-10.49 3.031-15.897 3.872-10.817 1.65-21.87.81-32.627-1.021-2.615-.45-5.2-.96-7.815-1.501-.772-.15-1.396.991-.564 1.381 1.07.48 2.169 1.051 3.298 1.381.654.18 1.605-.09 1.248-.961-.178-.48-.802-.69-1.248-.9q-1.338-.585-2.764-.901c-.772-.18-1.366.991-.564 1.381 5.824 2.731 11.202 6.453 15.778 11.045 2.348 2.371 4.368 4.982 6.448 7.593 1.872 2.342 3.982 4.533 6.627 6.033 3.238 1.831 6.893 2.761 10.519 3.512.772.15 1.396-1.021.564-1.381-8.32-3.692-12.658-14.436-9.003-22.93.386-.871-.892-1.651-1.278-.751-3.952 9.155.416 20.92 9.538 24.972.178-.45.386-.901.565-1.381-3.24-.66-6.508-1.471-9.48-3.001-2.733-1.411-4.902-3.572-6.804-5.943-2.05-2.551-4.011-5.132-6.3-7.473-2.198-2.251-4.635-4.322-7.19-6.183a54.8 54.8 0 0 0-9.211-5.433c-.179.451-.387.901-.565 1.381.773.18 1.545.39 2.258.69.238.09.446.21.684.301.475.24-.03.12.03-.361.059-.18.148-.36.207-.54.446-.39.713-.09.327-.24-.178-.09-.416-.15-.594-.21-.802-.3-1.575-.66-2.347-1.021-.179.451-.387.901-.565 1.381 10.727 2.251 21.721 3.842 32.686 3.362 5.497-.241 10.994-1.021 16.313-2.462 2.704-.72 5.378-1.56 8.112-2.251 2.704-.66 5.408-1.38 8.082-2.01 1.308-.301 2.764-.151 4.101-.151s2.674 0 3.982.03q3.921.046 7.844.271c5.289.33 10.579 1.02 15.689 2.401 2.526.69 5.141 1.47 7.459 2.641 1.961.99 3.625 2.491 5.645 3.331 1.486.631 4.16 1.321 4.784-.87.238-.87-.208-1.771-.624-2.521-.208-.39-.445-.78-.534-1.201-.119-.69.416-1.08.95-1.41 1.011-.601 2.288-.871 3.447-.961 1.397-.12 2.794-.27 4.19-.39 2.615-.21 5.23-.21 7.785.45 1.991.511 3.952 1.291 5.587 2.551s2.674 2.912 3.506 4.773c1.248 2.821 2.615 6.422 6.121 6.783 2.021.21 4.041-.841 5.527-2.131 1.723-1.501 2.585-3.572 3.566-5.613 4.308-8.974 9.003-18.218 9.479-28.393.059-1.32.059-2.61-.03-3.931-.089-1.141-.149-2.252-.713-3.272-.416-.75-1.07-1.44-1.932-1.62-1.069-.24-1.931.36-2.674 1.02-1.902 1.68-3.863 3.361-6.151 4.502-2.437 1.2-5.467 1.62-8.142 1.86-2.912.24-5.764-.06-8.647-.3-2.852-.24-5.734-.45-8.587-.66-5.794-.42-11.559-.69-17.353-1.11-5.705-.39-11.381-1.05-17.056-1.531-2.853-.24-5.676-.45-8.528-.66-1.397-.09-2.794-.24-4.22-.24-1.099 0-2.228-.06-3.328-.21-2.199-.33-4.219-1.201-5.735-2.852v1.05c2.942-2.91 8.885-5.492 8.32-10.504-.148-1.23-.653-2.551-1.515-3.422-1.01-.99-2.407-1.47-3.774-1.77-3.625-.75-7.547-.42-11.202.06-15.125 2.1-28.853 9.514-43.829 12.275-8.885 1.62-18.126 1.801-27.13 1.38-.95-.06-.92 1.442.03 1.501"/><path fill="#000" d="M29.25 76.279c-2.497-.12-4.963-.06-7.37.6-2.585.69-5.11 1.801-7.458 3.061-4.368 2.312-8.38 5.403-11.678 9.125-.802.9-1.693 1.86-2.317 2.911-.357.6-.535 1.29-.357 1.98.149.601.535 1.141.862 1.652 1.248 1.92 2.852 3.601 4.635 5.042 3.893 3.091 8.528 4.982 13.282 6.213 5.349 1.38 10.876 2.101 16.314 2.971.713.12 1.426.24 2.11.36.386.06.802-.09.92-.51.09-.36-.118-.87-.505-.93-5.289-.871-10.637-1.591-15.867-2.732-4.725-1.02-9.39-2.491-13.431-5.162-1.813-1.2-3.477-2.611-4.873-4.292-.684-.81-1.367-1.71-1.842-2.671-.268-.51-.15-.9.148-1.35.327-.481.684-.901 1.04-1.351a40.5 40.5 0 0 1 10.697-9.094c2.229-1.291 4.547-2.402 6.954-3.242 1.158-.42 2.317-.75 3.535-.93 1.1-.18 2.229-.21 3.329-.21.624 0 1.247.03 1.872.06.95.06.95-1.441 0-1.501"/><path fill="#000" d="M32.964 77.96a15.6 15.6 0 0 1 3.387 5.432c.684 1.951 1.01 4.022 1.04 6.123.03 2.13-.237 4.232-.683 6.333a54 54 0 0 1-.802 3.151c-.298.99-.595 2.041-1.04 2.971-1.1 2.282-3.299 3.782-5.35 5.133-.801.51-.058 1.831.744 1.29 2.02-1.32 4.07-2.761 5.408-4.832.624-.99.98-2.101 1.337-3.181.356-1.08.654-2.191.921-3.272 1.04-4.382 1.397-9.124.03-13.476a17.14 17.14 0 0 0-3.952-6.693c-.684-.75-1.724.33-1.04 1.02"/><path fill="#000" fill-rule="evenodd" d="M17.363 89.425c-1.1 0-1.99.9-1.99 2.01a2 2 0 0 0 1.99 2.012 2 2 0 0 0 1.99-2.011c0-1.11-.89-2.011-1.99-2.011m-3.18 2.01c0-1.773 1.424-3.21 3.18-3.21s3.18 1.437 3.18 3.21c0 1.774-1.424 3.212-3.18 3.212s-3.18-1.438-3.18-3.211" clip-rule="evenodd"/></svg>
